X:3
T:Behind the Haystack
T:Munster Buttermilk
E:11
R:jig
I:speed 350
M:6/8
K:D
A|d2e fdB|d2e fdB|AFE ~E3|AFE ~E3|\
d2e fdB|d2e fdB|AFD ~D3|AFD D2:|*
A|~B3 BAF|ABc d2B|AFE ~E3|AFE ~E3|\
~B3 BAF|ABc d2B|AFD ~D3|AFD D2:|*
f|~g3 faf|ede fdB|AFE ~E3|AFE ~E3|\
~g3 faf|ede fdB|AFD ~D3|AFD D2:|**
<end>
<start>
